src/images/e-logo.svg

<svg width="72" height="72" viewBox="0 0 72 72" fill="none" xmlns="http://www.w3.org/2000/svg">
<path d="M0 8.11268C0 3.63217 3.63217 0 8.11268 0H63.8873C68.3678 0 72 3.63217 72 8.11268V63.8873C72 68.3678 68.3678 72 63.8873 72H0V8.11268Z" fill="#E6E6E6"/>
<path fill-rule="evenodd" clip-rule="evenodd" d="M0 66.4756V21.6934C2.57048 18.6925 5.77033 16.0888 9.59956 13.8821C17.6773 9.22725 25.8954 8.25126 34.2541 10.9542C42.6861 13.6147 49.2194 19.1505 53.8539 27.5614C54.8884 29.4389 55.8014 31.5348 56.5929 33.8491V36.5533L17.3036 59.761C22.6669 63.7904 29.043 63.6761 36.4319 59.4181C41.8659 56.2867 44.9437 52.0395 45.6652 46.6765L60.8451 46.8338C60.8451 46.9624 60.8441 47.0906 60.8423 47.2186C60.8377 47.5354 60.8274 47.8504 60.8114 48.1636C60.3649 57.0248 55.5026 65.8904 48.0808 72H4.62732C2.94615 70.3759 1.40371 68.5345 0 66.4756ZM35.6658 31.0671C33.2994 29.0062 30.7298 27.8233 27.9572 27.5184C24.4259 27.0798 21.0448 27.7914 17.8137 29.6534C13.9951 31.8539 11.3961 34.6873 10.0166 38.1537C8.94316 40.7158 8.6115 43.4716 9.02163 46.4212L35.6658 31.0671Z" fill="#3300FF"/>
<path fill-rule="evenodd" clip-rule="evenodd" d="M44.6894 72H0V21.6934C2.57048 18.6925 5.77033 16.0888 9.59956 13.8821C17.6773 9.22725 25.8954 8.25126 34.2541 10.9542C42.6861 13.6147 49.2194 19.1505 53.8539 27.5614C54.8884 29.4389 55.8014 31.5348 56.5929 33.8491L15.0661 57.7795C20.8651 63.7384 27.987 64.2846 36.4319 59.4181C41.8659 56.2867 44.9437 52.0395 45.6653 46.6765L60.8451 46.8338C59.8778 57.5651 54.4926 65.9538 44.6894 72ZM36.7273 30.4554L8.63889 46.6418C7.46044 42.5716 7.58165 38.8408 9.00253 35.4495C10.382 31.9831 12.9811 29.1496 16.7996 26.9491C20.0307 25.0872 23.4118 24.3755 26.9431 24.8142C30.5477 25.2105 33.8091 27.0909 36.7273 30.4554Z" fill="#FF323E"/>
</svg>

<svg xmlns="http://www.w3.org/2000/svg" width="72" height="72" fill="none"><path fill="#E6E6E6" d="M0 8.1C0 3.64 3.63 0 8.1 0h55.8C68.36 0 72 3.63 72 8.1v55.8c0 4.47-3.63 8.1-8.1 8.1H0V8.1z"/><path fill="#30f" fill-rule="evenodd" d="M0 66.48v-44.8c2.57-3 5.77-5.6 9.6-7.8 8.08-4.65 16.3-5.63 24.65-2.93 8.44 2.66 14.97 8.2 19.6 16.6 1.04 1.9 1.95 3.98 2.74 6.3v2.7l-39.3 23.2c5.37 4.04 11.74 3.93 19.13-.33 5.44-3.13 8.5-7.38 9.24-12.74l15.18.15c0 .13 0 .26 0 .4 0 .3-.02.62-.04.93C60.37 57.02 55.5 65.9 48.1 72H4.63C2.95 70.38 1.4 68.53 0 66.48zm35.67-35.4c-2.37-2.07-4.94-3.26-7.7-3.56-3.54-.44-6.93.27-10.16 2.13-3.8 2.2-6.4 5.04-7.78 8.5-1.08 2.57-1.4 5.32-1 8.27l26.65-15.35z" clip-rule="evenodd"/><path fill="#FF323E" fill-rule="evenodd" d="M44.7 72H0V21.7c2.57-3 5.77-5.6 9.6-7.82 8.08-4.65 16.3-5.63 24.65-2.93 8.44 2.66 14.97 8.2 19.6 16.6 1.04 1.9 1.95 3.98 2.74 6.3L15.06 57.78c5.8 5.96 12.92 6.5 21.36 1.64 5.44-3.13 8.5-7.38 9.24-12.74l15.18.15C59.88 57.57 54.5 65.95 44.7 72zm-7.97-41.54L8.63 46.64c-1.17-4.07-1.05-7.8.37-11.2 1.38-3.46 3.98-6.3 7.8-8.5 3.23-1.85 6.6-2.56 10.14-2.13 3.6.4 6.87 2.3 9.8 5.66z" clip-rule="evenodd"/></svg>
